src/components/ProtocolIcon/solana.svg

<svg width="19" height="16" viewBox="0 0 19 16" fill="none" xmlns="http://www.w3.org/2000/svg">
<path d="M18.5089 12.6149L15.4376 15.7821C15.3708 15.8509 15.29 15.9057 15.2003 15.9432C15.1105 15.9807 15.0137 16.0001 14.9158 16H0.356552C0.287081 16 0.219124 15.9805 0.161032 15.9439C0.102939 15.9072 0.0572397 15.8551 0.0295493 15.7938C0.00185905 15.7325 -0.00661628 15.6648 0.00516476 15.599C0.0169458 15.5332 0.0484699 15.4721 0.0958641 15.4232L3.16944 12.256C3.23603 12.1874 3.31655 12.1326 3.40601 12.0952C3.4955 12.0577 3.59202 12.0383 3.68963 12.0381H18.2481C18.3176 12.0381 18.3855 12.0576 18.4437 12.0942C18.5017 12.1309 18.5474 12.183 18.5752 12.2443C18.6028 12.3056 18.6113 12.3733 18.5995 12.4391C18.5877 12.5049 18.5562 12.566 18.5089 12.6149ZM15.4376 6.23695C15.3708 6.16815 15.29 6.11329 15.2003 6.0758C15.1105 6.03833 15.0137 6.019 14.9158 6.01905H0.356552C0.287081 6.01905 0.219124 6.03856 0.161032 6.0752C0.102939 6.11184 0.0572397 6.16398 0.0295493 6.22524C0.00185905 6.28651 -0.00661628 6.35422 0.00516476 6.42005C0.0169458 6.48587 0.0484699 6.54696 0.0958641 6.59582L3.16944 9.76305C3.23603 9.83167 3.31655 9.8864 3.40601 9.92389C3.4955 9.96136 3.59202 9.9808 3.68963 9.98095H18.2481C18.3176 9.98095 18.3855 9.96144 18.4437 9.9248C18.5017 9.88816 18.5474 9.83602 18.5752 9.77476C18.6028 9.71349 18.6113 9.64578 18.5995 9.57995C18.5877 9.51413 18.5562 9.45304 18.5089 9.40418L15.4376 6.23695ZM0.356552 3.96191H14.9158C15.0137 3.96195 15.1105 3.94264 15.2003 3.90515C15.29 3.86765 15.3708 3.8128 15.4376 3.744L18.5089 0.576762C18.5562 0.527922 18.5877 0.466833 18.5995 0.401C18.6113 0.335167 18.6028 0.26746 18.5752 0.206196C18.5474 0.144933 18.5017 0.0927811 18.4437 0.0561496C18.3855 0.019518 18.3176 2.25589e-06 18.2481 0H3.68963C3.59202 0.000159709 3.4955 0.0195816 3.40601 0.0570633C3.31655 0.0945451 3.23603 0.149289 3.16944 0.217905L0.0966563 3.38515C0.049308 3.43393 0.0177978 3.49496 0.00599005 3.56071C-0.00581771 3.62647 0.00259036 3.69413 0.030183 3.75536C0.0577757 3.8166 0.103354 3.86875 0.161327 3.90544C0.219301 3.94213 0.287149 3.96175 0.356552 3.96191Z" fill="url(#paint0_linear_3433_250)"/>
<defs>
<linearGradient id="paint0_linear_3433_250" x1="1.57045" y1="16.3813" x2="16.1721" y2="-0.736794" gradientUnits="userSpaceOnUse">
<stop offset="0.08" stop-color="#9945FF"/>
<stop offset="0.3" stop-color="#8752F3"/>
<stop offset="0.5" stop-color="#5497D5"/>
<stop offset="0.6" stop-color="#43B4CA"/>
<stop offset="0.72" stop-color="#28E0B9"/>
<stop offset="0.97" stop-color="#19FB9B"/>
</linearGradient>
</defs>
</svg>

<svg xmlns="http://www.w3.org/2000/svg" width="19" height="16" fill="none"><path fill="url(#a)" d="m18.509 12.615-3.071 3.167a.72.72 0 0 1-.522.218H.356a.37.37 0 0 1-.195-.056.35.35 0 0 1-.131-.15.33.33 0 0 1 .066-.37l3.073-3.168a.71.71 0 0 1 .52-.218h14.56c.069 0 .137.02.195.056a.35.35 0 0 1 .131.15.33.33 0 0 1-.066.37m-3.071-6.378a.72.72 0 0 0-.522-.218H.356c-.069 0-.137.02-.195.056a.35.35 0 0 0-.131.15.33.33 0 0 0 .066.37l3.073 3.168a.71.71 0 0 0 .52.218h14.56c.069 0 .137-.02.195-.056a.35.35 0 0 0 .131-.15.33.33 0 0 0-.066-.37zM.357 3.962h14.559a.74.74 0 0 0 .522-.218l3.07-3.167a.331.331 0 0 0 .066-.37.35.35 0 0 0-.13-.15.37.37 0 0 0-.196-.057H3.69a.74.74 0 0 0-.52.218L.096 3.385a.33.33 0 0 0-.066.37.35.35 0 0 0 .13.15.37.37 0 0 0 .196.057"/><defs><linearGradient id="a" x1="1.57" x2="16.172" y1="16.381" y2="-.737" gradientUnits="userSpaceOnUse"><stop offset=".08" stop-color="#9945FF"/><stop offset=".3" stop-color="#8752F3"/><stop offset=".5" stop-color="#5497D5"/><stop offset=".6" stop-color="#43B4CA"/><stop offset=".72" stop-color="#28E0B9"/><stop offset=".97" stop-color="#19FB9B"/></linearGradient></defs></svg>
